flaticon/household/bed.svg

<svg xmlns="http://www.w3.org/2000/svg" width="32" height="32" viewBox="0 0 24 24">
    <path d="M2.800781 5.398438C2.800781 5.621094 2.621094 5.800781 2.398438 5.800781 2.179688 5.800781 2 5.621094 2 5.398438 2 5.179688 2.179688 5 2.398438 5 2.621094 5 2.800781 5.179688 2.800781 5.398438zM4 4.199219C4 4.421875 3.820312 4.601562 3.601562 4.601562 3.378906 4.601562 3.199219 4.421875 3.199219 4.199219 3.199219 3.980469 3.378906 3.800781 3.601562 3.800781 3.820312 3.800781 4 3.980469 4 4.199219zM1.601562 6.601562C1.601562 6.820312 1.421875 7 1.199219 7 .980469 7 .800781 6.820312.800781 6.601562.800781 6.378906.980469 6.199219 1.199219 6.199219 1.421875 6.199219 1.601562 6.378906 1.601562 6.601562zM4 6.601562C4 6.820312 3.820312 7 3.601562 7 3.378906 7 3.199219 6.820312 3.199219 6.601562 3.199219 6.378906 3.378906 6.199219 3.601562 6.199219 3.820312 6.199219 4 6.378906 4 6.601562zM5.199219 5.398438C5.199219 5.621094 5.019531 5.800781 4.800781 5.800781 4.578125 5.800781 4.398438 5.621094 4.398438 5.398438 4.398438 5.179688 4.578125 5 4.800781 5 5.019531 5 5.199219 5.179688 5.199219 5.398438zM7.601562 5.398438C7.601562 5.621094 7.421875 5.800781 7.199219 5.800781 6.980469 5.800781 6.800781 5.621094 6.800781 5.398438 6.800781 5.179688 6.980469 5 7.199219 5 7.421875 5 7.601562 5.179688 7.601562 5.398438zM6.398438 4.199219C6.398438 4.421875 6.222656 4.601562 6 4.601562 5.777344 4.601562 5.601562 4.421875 5.601562 4.199219 5.601562 3.980469 5.777344 3.800781 6 3.800781 6.222656 3.800781 6.398438 3.980469 6.398438 4.199219zM8.800781 4.199219C8.800781 4.421875 8.621094 4.601562 8.398438 4.601562 8.179688 4.601562 8 4.421875 8 4.199219 8 3.980469 8.179688 3.800781 8.398438 3.800781 8.621094 3.800781 8.800781 3.980469 8.800781 4.199219zM10 5.398438C10 5.621094 9.820312 5.800781 9.601562 5.800781 9.378906 5.800781 9.199219 5.621094 9.199219 5.398438 9.199219 5.179688 9.378906 5 9.601562 5 9.820312 5 10 5.179688 10 5.398438zM12.398438 5.398438C12.398438 5.621094 12.222656 5.800781 12 5.800781 11.777344 5.800781 11.601562 5.621094 11.601562 5.398438 11.601562 5.179688 11.777344 5 12 5 12.222656 5 12.398438 5.179688 12.398438 5.398438zM11.199219 4.199219C11.199219 4.421875 11.019531 4.601562 10.800781 4.601562 10.578125 4.601562 10.398438 4.421875 10.398438 4.199219 10.398438 3.980469 10.578125 3.800781 10.800781 3.800781 11.019531 3.800781 11.199219 3.980469 11.199219 4.199219zM13.601562 4.199219C13.601562 4.421875 13.421875 4.601562 13.199219 4.601562 12.980469 4.601562 12.800781 4.421875 12.800781 4.199219 12.800781 3.980469 12.980469 3.800781 13.199219 3.800781 13.421875 3.800781 13.601562 3.980469 13.601562 4.199219zM11.199219 6.601562C11.199219 6.820312 11.019531 7 10.800781 7 10.578125 7 10.398438 6.820312 10.398438 6.601562 10.398438 6.378906 10.578125 6.199219 10.800781 6.199219 11.019531 6.199219 11.199219 6.378906 11.199219 6.601562zM13.601562 6.601562C13.601562 6.820312 13.421875 7 13.199219 7 12.980469 7 12.800781 6.820312 12.800781 6.601562 12.800781 6.378906 12.980469 6.199219 13.199219 6.199219 13.421875 6.199219 13.601562 6.378906 13.601562 6.601562zM14.800781 5.398438C14.800781 5.621094 14.621094 5.800781 14.398438 5.800781 14.179688 5.800781 14 5.621094 14 5.398438 14 5.179688 14.179688 5 14.398438 5 14.621094 5 14.800781 5.179688 14.800781 5.398438zM17.199219 5.398438C17.199219 5.621094 17.019531 5.800781 16.800781 5.800781 16.578125 5.800781 16.398438 5.621094 16.398438 5.398438 16.398438 5.179688 16.578125 5 16.800781 5 17.019531 5 17.199219 5.179688 17.199219 5.398438zM16 4.199219C16 4.421875 15.820312 4.601562 15.601562 4.601562 15.378906 4.601562 15.199219 4.421875 15.199219 4.199219 15.199219 3.980469 15.378906 3.800781 15.601562 3.800781 15.820312 3.800781 16 3.980469 16 4.199219zM18.398438 4.199219C18.398438 4.421875 18.222656 4.601562 18 4.601562 17.777344 4.601562 17.601562 4.421875 17.601562 4.199219 17.601562 3.980469 17.777344 3.800781 18 3.800781 18.222656 3.800781 18.398438 3.980469 18.398438 4.199219zM19.601562 5.398438C19.601562 5.621094 19.421875 5.800781 19.199219 5.800781 18.980469 5.800781 18.800781 5.621094 18.800781 5.398438 18.800781 5.179688 18.980469 5 19.199219 5 19.421875 5 19.601562 5.179688 19.601562 5.398438zM22 5.398438C22 5.621094 21.820312 5.800781 21.601562 5.800781 21.378906 5.800781 21.199219 5.621094 21.199219 5.398438 21.199219 5.179688 21.378906 5 21.601562 5 21.820312 5 22 5.179688 22 5.398438zM2.800781 7.800781C2.800781 8.019531 2.621094 8.199219 2.398438 8.199219 2.179688 8.199219 2 8.019531 2 7.800781 2 7.578125 2.179688 7.398438 2.398438 7.398438 2.621094 7.398438 2.800781 7.578125 2.800781 7.800781zM12.398438 7.800781C12.398438 8.019531 12.222656 8.199219 12 8.199219 11.777344 8.199219 11.601562 8.019531 11.601562 7.800781 11.601562 7.578125 11.777344 7.398438 12 7.398438 12.222656 7.398438 12.398438 7.578125 12.398438 7.800781zM22 7.800781C22 8.019531 21.820312 8.199219 21.601562 8.199219 21.378906 8.199219 21.199219 8.019531 21.199219 7.800781 21.199219 7.578125 21.378906 7.398438 21.601562 7.398438 21.820312 7.398438 22 7.578125 22 7.800781zM20.800781 4.199219C20.800781 4.421875 20.621094 4.601562 20.398438 4.601562 20.179688 4.601562 20 4.421875 20 4.199219 20 3.980469 20.179688 3.800781 20.398438 3.800781 20.621094 3.800781 20.800781 3.980469 20.800781 4.199219zM20.800781 6.601562C20.800781 6.820312 20.621094 7 20.398438 7 20.179688 7 20 6.820312 20 6.601562 20 6.378906 20.179688 6.199219 20.398438 6.199219 20.621094 6.199219 20.800781 6.378906 20.800781 6.601562zM23.199219 6.601562C23.199219 6.820312 23.019531 7 22.800781 7 22.578125 7 22.398438 6.820312 22.398438 6.601562 22.398438 6.378906 22.578125 6.199219 22.800781 6.199219 23.019531 6.199219 23.199219 6.378906 23.199219 6.601562zM1.601562 9C1.601562 9.222656 1.421875 9.398438 1.199219 9.398438.980469 9.398438.800781 9.222656.800781 9 .800781 8.777344.980469 8.601562 1.199219 8.601562 1.421875 8.601562 1.601562 8.777344 1.601562 9zM11.199219 9C11.199219 9.222656 11.019531 9.398438 10.800781 9.398438 10.578125 9.398438 10.398438 9.222656 10.398438 9 10.398438 8.777344 10.578125 8.601562 10.800781 8.601562 11.019531 8.601562 11.199219 8.777344 11.199219 9zM13.601562 9C13.601562 9.222656 13.421875 9.398438 13.199219 9.398438 12.980469 9.398438 12.800781 9.222656 12.800781 9 12.800781 8.777344 12.980469 8.601562 13.199219 8.601562 13.421875 8.601562 13.601562 8.777344 13.601562 9zM23.199219 9C23.199219 9.222656 23.019531 9.398438 22.800781 9.398438 22.578125 9.398438 22.398438 9.222656 22.398438 9 22.398438 8.777344 22.578125 8.601562 22.800781 8.601562 23.019531 8.601562 23.199219 8.777344 23.199219 9zM23.199219 9"/>
    <path d="M 21.160156 3 L 2.839844 3 C 1.273438 3 0 4.273438 0 5.839844 L 0 15.726562 C 0 16.066406 0.136719 16.371094 0.351562 16.601562 C 0.136719 16.828125 0 17.132812 0 17.472656 L 0 18.527344 C 0 19.0625 0.332031 19.519531 0.800781 19.707031 L 0.800781 21 L 4.398438 21 L 4.398438 19.800781 L 19.601562 19.800781 L 19.601562 21 L 23.199219 21 L 23.199219 19.707031 C 23.667969 19.519531 24 19.0625 24 18.527344 L 24 17.472656 C 24 17.132812 23.863281 16.828125 23.648438 16.601562 C 23.863281 16.371094 24 16.066406 24 15.726562 L 24 5.839844 C 24 4.273438 22.726562 3 21.160156 3 Z M 0.800781 11.398438 L 0.800781 5.839844 C 0.800781 4.714844 1.714844 3.800781 2.839844 3.800781 L 21.160156 3.800781 C 22.285156 3.800781 23.199219 4.714844 23.199219 5.839844 L 23.199219 12.292969 C 23.195312 12.289062 23.1875 12.289062 23.179688 12.285156 C 23.160156 12.085938 23.113281 11.890625 23.050781 11.703125 C 23.140625 11.632812 23.199219 11.523438 23.199219 11.398438 C 23.199219 11.179688 23.019531 11 22.800781 11 C 22.769531 11 22.738281 11.011719 22.707031 11.019531 C 22.25 10.351562 21.507812 9.890625 20.65625 9.8125 C 20.820312 9.261719 20.6875 8.652344 20.253906 8.21875 L 18.3125 6.273438 C 17.679688 5.644531 16.652344 5.640625 16.019531 6.273438 L 15.921875 6.371094 C 15.847656 6.269531 15.734375 6.199219 15.601562 6.199219 C 15.378906 6.199219 15.199219 6.378906 15.199219 6.601562 C 15.199219 6.734375 15.269531 6.847656 15.371094 6.921875 L 14.71875 7.574219 C 14.648438 7.472656 14.535156 7.398438 14.398438 7.398438 C 14.179688 7.398438 14 7.578125 14 7.800781 C 14 7.933594 14.070312 8.046875 14.171875 8.121094 L 14.074219 8.21875 C 13.644531 8.648438 13.511719 9.253906 13.667969 9.800781 L 9.933594 9.800781 C 10.089844 9.253906 9.957031 8.648438 9.523438 8.21875 L 9.484375 8.175781 C 9.519531 8.1875 9.558594 8.199219 9.601562 8.199219 C 9.820312 8.199219 10 8.019531 10 7.800781 C 10 7.578125 9.820312 7.398438 9.601562 7.398438 C 9.378906 7.398438 9.199219 7.578125 9.199219 7.800781 C 9.199219 7.839844 9.210938 7.878906 9.222656 7.914062 L 8.285156 6.976562 C 8.320312 6.988281 8.359375 7 8.398438 7 C 8.621094 7 8.800781 6.820312 8.800781 6.601562 C 8.800781 6.378906 8.621094 6.199219 8.398438 6.199219 C 8.179688 6.199219 8 6.378906 8 6.601562 C 8 6.640625 8.011719 6.679688 8.023438 6.714844 L 7.582031 6.273438 C 6.949219 5.644531 5.921875 5.644531 5.289062 6.273438 L 3.347656 8.21875 C 2.894531 8.667969 2.769531 9.3125 2.960938 9.875 C 2.273438 10.039062 1.679688 10.453125 1.292969 11.019531 C 1.261719 11.011719 1.230469 11 1.199219 11 C 0.980469 11 0.800781 11.179688 0.800781 11.398438 C 0.800781 11.523438 0.859375 11.632812 0.949219 11.703125 C 0.886719 11.890625 0.839844 12.085938 0.820312 12.285156 C 0.8125 12.289062 0.804688 12.289062 0.800781 12.292969 Z M 3.910156 8.78125 L 5.855469 6.839844 C 6.175781 6.519531 6.695312 6.519531 7.015625 6.839844 L 8.960938 8.78125 C 9.238281 9.058594 9.273438 9.480469 9.070312 9.800781 L 3.800781 9.800781 C 3.597656 9.480469 3.636719 9.058594 3.910156 8.78125 Z M 3.601562 10.601562 L 20.398438 10.601562 C 21.367188 10.601562 22.175781 11.289062 22.359375 12.199219 L 1.640625 12.199219 C 1.824219 11.289062 2.632812 10.601562 3.601562 10.601562 Z M 14.640625 8.78125 L 16.582031 6.839844 C 16.902344 6.519531 17.425781 6.519531 17.746094 6.839844 L 19.6875 8.78125 C 19.964844 9.058594 20.003906 9.480469 19.800781 9.800781 L 14.527344 9.800781 C 14.324219 9.480469 14.363281 9.058594 14.640625 8.78125 Z M 3.601562 20.199219 L 1.601562 20.199219 L 1.601562 19.800781 L 3.601562 19.800781 Z M 22.398438 20.199219 L 20.398438 20.199219 L 20.398438 19.800781 L 22.398438 19.800781 Z M 23.199219 18.527344 C 23.199219 18.789062 22.988281 19 22.726562 19 L 1.273438 19 C 1.011719 19 0.800781 18.789062 0.800781 18.527344 L 0.800781 17.472656 C 0.800781 17.210938 1.011719 17 1.273438 17 L 22.726562 17 C 22.988281 17 23.199219 17.210938 23.199219 17.472656 Z M 23.199219 15.726562 C 23.199219 15.988281 22.988281 16.199219 22.726562 16.199219 L 1.273438 16.199219 C 1.011719 16.199219 0.800781 15.988281 0.800781 15.726562 L 0.800781 13.472656 C 0.800781 13.210938 1.011719 13 1.273438 13 L 22.726562 13 C 22.988281 13 23.199219 13.210938 23.199219 13.472656 Z M 23.199219 15.726562"/>
</svg>

<svg xmlns="http://www.w3.org/2000/svg" width="32" height="32" viewBox="0 0 24 24">
    <path d="M2.8 5.398a.401.401 0 1 1 0 0zm0 0M4 4.2a.401.401 0 1 1-.802.002A.401.401 0 0 1 4 4.199zm0 0M1.602 6.602A.401.401 0 1 1 .8 6.597a.401.401 0 0 1 .802.005zm0 0M4 6.602a.4.4 0 1 1-.8-.004.4.4 0 0 1 .8.004zm0 0M5.2 5.398a.401.401 0 1 1-.803.003.401.401 0 0 1 .802-.003zm0 0M7.602 5.398a.401.401 0 1 1 0 0zm0 0M6.398 4.2a.398.398 0 1 1-.796 0 .398.398 0 1 1 .796 0zm0 0M8.8 4.2a.401.401 0 1 1 0 0zm0 0M10 5.398a.401.401 0 1 1-.802.003.401.401 0 0 1 .802-.003zm0 0M12.398 5.398a.398.398 0 1 1-.796 0 .398.398 0 1 1 .796 0zm0 0M11.2 4.2a.401.401 0 1 1-.803.002.401.401 0 0 1 .802-.003zm0 0M13.602 4.2a.401.401 0 1 1 0 0zm0 0M11.2 6.602a.4.4 0 1 1-.801-.004.4.4 0 0 1 .8.004zm0 0M13.602 6.602a.401.401 0 1 1-.802-.005.401.401 0 0 1 .802.005zm0 0M14.8 5.398a.401.401 0 1 1 0 0zm0 0M17.2 5.398a.401.401 0 1 1-.803.003.401.401 0 0 1 .802-.003zm0 0M16 4.2a.401.401 0 1 1-.802.002.401.401 0 0 1 .802-.003zm0 0M18.398 4.2a.398.398 0 1 1-.796 0 .398.398 0 1 1 .796 0zm0 0M19.602 5.398a.401.401 0 1 1 0 0zm0 0M22 5.398a.401.401 0 1 1-.802.003.401.401 0 0 1 .802-.003zm0 0M2.8 7.8A.401.401 0 1 1 2 7.797.401.401 0 0 1 2.8 7.8zm0 0M12.398 7.8a.398.398 0 1 1-.796 0 .398.398 0 1 1 .796 0zm0 0M22 7.8a.4.4 0 1 1-.8-.003.4.4 0 0 1 .8.004zm0 0M20.8 4.2a.401.401 0 1 1 0 0zm0 0M20.8 6.602A.401.401 0 1 1 20 6.597a.401.401 0 0 1 .802.005zm0 0M23.2 6.602a.4.4 0 1 1-.801-.004.4.4 0 0 1 .8.004zm0 0M1.602 9c0 .223-.18.398-.403.398a.398.398 0 1 1 0-.796c.223 0 .403.175.403.398zm0 0M11.2 9c0 .223-.18.398-.4.398a.398.398 0 1 1 0-.796c.22 0 .4.175.4.398zm0 0M13.602 9c0 .223-.18.398-.403.398a.398.398 0 1 1 0-.796c.223 0 .403.175.403.398zm0 0M23.2 9c0 .223-.18.398-.4.398a.398.398 0 1 1 0-.796c.22 0 .4.175.4.398zm0 0"/>
    <path d="M21.16 3H2.84A2.842 2.842 0 0 0 0 5.84v9.887c0 .34.137.644.352.875a1.262 1.262 0 0 0-.352.87v1.055c0 .535.332.993.8 1.18V21h3.598v-1.2h15.204V21h3.597v-1.293c.469-.187.801-.645.801-1.18v-1.054c0-.34-.137-.645-.352-.871.215-.23.352-.536.352-.875V5.84A2.842 2.842 0 0 0 21.16 3zM.8 11.398V5.84A2.04 2.04 0 0 1 2.84 3.8h18.32a2.04 2.04 0 0 1 2.04 2.04v6.453c-.005-.004-.012-.004-.02-.008-.02-.2-.067-.394-.13-.582.09-.07.15-.18.15-.305a.4.4 0 0 0-.4-.398c-.03 0-.062.012-.093.02a2.797 2.797 0 0 0-2.05-1.207c.163-.551.03-1.16-.403-1.594l-1.942-1.946a1.626 1.626 0 0 0-2.292 0l-.098.098a.398.398 0 0 0-.32-.172.402.402 0 0 0-.403.403c0 .132.07.246.172.32l-.652.652a.39.39 0 0 0-.32-.176.401.401 0 0 0-.399.403c0 .133.07.246.172.32l-.098.098a1.602 1.602 0 0 0-.406 1.582H9.934a1.595 1.595 0 0 0-.41-1.582l-.04-.043a.368.368 0 0 0 .118.023.4.4 0 1 0-.403-.398c0 .039.012.078.024.113l-.938-.937A.366.366 0 0 0 8.398 7 .401.401 0 1 0 8 6.602c0 .039.012.078.023.113l-.441-.442a1.63 1.63 0 0 0-2.293 0L3.348 8.22a1.598 1.598 0 0 0-.387 1.656 2.812 2.812 0 0 0-1.668 1.145c-.031-.008-.063-.02-.094-.02a.4.4 0 0 0-.398.398c0 .125.058.235.148.305-.062.188-.11.383-.129.582-.007.004-.015.004-.02.008zm3.11-2.617L5.855 6.84a.82.82 0 0 1 1.16 0L8.962 8.78c.277.278.312.7.11 1.02H3.8a.822.822 0 0 1 .11-1.02zm-.308 1.82h16.796A2 2 0 0 1 22.36 12.2H1.641a2 2 0 0 1 1.96-1.597zm11.039-1.82l1.941-1.941a.825.825 0 0 1 1.164 0l1.942 1.941c.277.278.316.7.113 1.02h-5.274a.818.818 0 0 1 .114-1.02zM3.6 20.2h-2v-.398h2zm18.797 0h-2v-.398h2zm.801-1.672c0 .262-.21.473-.472.473H1.273a.472.472 0 0 1-.472-.473v-1.054c0-.262.21-.473.472-.473h21.454c.261 0 .472.21.472.473zm0-2.8c0 .261-.21.472-.472.472H1.273a.472.472 0 0 1-.472-.472v-2.254c0-.262.21-.473.472-.473h21.454c.261 0 .472.21.472.473zm0 0"/>
</svg>
